public/icons/pnpm.svg

<svg xmlns="http://www.w3.org/2000/svg" xmlns:xlink="http://www.w3.org/1999/xlink" width="180" height="180" viewBox="66.092 33.5 184.5 184.5"><defs><path id="a" d="M67.59 35h180v180h-180z"/><path id="b" d="M237.6 95h-50V45h50z"/><path id="c" d="M182.59 95h-50V45h50z"/><path id="d" d="M127.59 95h-50V45h50z"/><path id="e" d="M237.6 150h-50v-50h50z"/><path id="f" d="M182.59 150h-50v-50h50z"/><path id="g" d="M182.59 205h-50v-50h50z"/><path id="h" d="M237.6 205h-50v-50h50z"/><path id="i" d="M127.59 205h-50v-50h50z"/></defs><use xlink:href="#a" fill="#fff"/><use xlink:href="#b" fill="#f9ad00"/><use xlink:href="#c" fill="#f9ad00"/><use xlink:href="#d" fill="#f9ad00"/><use xlink:href="#e" fill="#f9ad00"/><use xlink:href="#f" fill="#4e4e4e"/><use xlink:href="#g" fill="#4e4e4e"/><use xlink:href="#h" fill="#4e4e4e"/><use xlink:href="#i" fill="#4e4e4e"/></svg>

<?xml version="1.0" encoding="UTF-8" standalone="no"?>
<!DOCTYPE svg PUBLIC "-//W3C//DTD SVG 1.1//EN" "http://www.w3.org/Graphics/SVG/1.1/DTD/svg11.dtd">
<svg version="1.1" xmlns="http://www.w3.org/2000/svg" xmlns:xlink="http://www.w3.org/1999/xlink" preserveAspectRatio="xMidYMid meet" viewBox="66.09157809474142 33.5 184.5 184.49999999999997" width="180" height="180"><defs><path d="M67.59 35L247.59 35L247.59 215L67.59 215L67.59 35Z" id="b2JZZcA3fT"></path><path d="M237.6 95L187.6 95L187.6 45L237.6 45L237.6 95Z" id="bj0tb0Y8q"></path><path d="M182.59 95L132.59 95L132.59 45L182.59 45L182.59 95Z" id="dkDSTzPj3"></path><path d="M127.59 95L77.59 95L77.59 45L127.59 45L127.59 95Z" id="a4vNdcNLpF"></path><path d="M237.6 150L187.6 150L187.6 100L237.6 100L237.6 150Z" id="h2t4Zj1jSU"></path><path d="M182.59 150L132.59 150L132.59 100L182.59 100L182.59 150Z" id="b4t5pngwvT"></path><path d="M182.59 205L132.59 205L132.59 155L182.59 155L182.59 205Z" id="b9s1gd5m2"></path><path d="M237.6 205L187.6 205L187.6 155L237.6 155L237.6 205Z" id="cmt9WLvz7"></path><path d="M127.59 205L77.59 205L77.59 155L127.59 155L127.59 205Z" id="bJUNqgFSg"></path></defs><g><g><use xlink:href="#b2JZZcA3fT" opacity="1" fill="#ffffff" fill-opacity="1"></use></g><g><use xlink:href="#bj0tb0Y8q" opacity="1" fill="#f9ad00" fill-opacity="1"></use></g><g><use xlink:href="#dkDSTzPj3" opacity="1" fill="#f9ad00" fill-opacity="1"></use></g><g><use xlink:href="#a4vNdcNLpF" opacity="1" fill="#f9ad00" fill-opacity="1"></use></g><g><use xlink:href="#h2t4Zj1jSU" opacity="1" fill="#f9ad00" fill-opacity="1"></use></g><g><use xlink:href="#b4t5pngwvT" opacity="1" fill="#4e4e4e" fill-opacity="1"></use></g><g><use xlink:href="#b9s1gd5m2" opacity="1" fill="#4e4e4e" fill-opacity="1"></use></g><g><use xlink:href="#cmt9WLvz7" opacity="1" fill="#4e4e4e" fill-opacity="1"></use></g><g><use xlink:href="#bJUNqgFSg" opacity="1" fill="#4e4e4e" fill-opacity="1"></use></g></g></svg>
